packages/foundations/assets/icons/functional/images/transportation/train_and_car_28.svg

<svg width="28" height="28" viewBox="0 0 28 28" fill="none" xmlns="http://www.w3.org/2000/svg">
<g clip-path="url(#clip0_187_984)">
<path fill-rule="evenodd" clip-rule="evenodd" d="M21.8807 12.2496C22.81 12.2496 23.6106 12.8805 23.8827 13.7765L24.756 17.4996H25.6826C25.9766 17.4996 26.2041 17.6991 26.2435 17.9774L26.2496 18.6467C26.2496 18.9399 26.0484 19.1989 25.7684 19.2435L25.3895 19.2505C25.4184 19.3914 25.4332 19.5375 25.4332 19.6871C25.4332 19.7869 25.3204 20.8097 25.0937 22.7566C25.0482 23.1504 24.917 23.5161 24.7184 23.8355V25.3746C24.7184 25.8576 24.3264 26.2496 23.8434 26.2496H22.9684C22.4854 26.2496 22.0934 25.8576 22.0934 25.3746V25.1261C20.7082 25.1462 19.3222 25.1559 17.9371 25.1559C16.552 25.1559 15.166 25.1454 13.7809 25.1244V25.3746C13.7809 25.8576 13.3889 26.2496 12.9059 26.2496H12.0309C11.5479 26.2496 11.1559 25.8576 11.1559 25.3746V23.8372C10.9905 23.5704 10.8715 23.272 10.8102 22.9517C10.7691 22.7382 10.651 21.7337 10.455 19.9382C10.4279 19.702 10.4392 19.471 10.4839 19.2496H10.1916C9.86786 19.2496 9.62461 18.9687 9.62461 18.6467V18.0631C9.62461 17.7402 9.86786 17.4996 10.1916 17.4996H11.1174L11.953 13.92C12.1682 12.9969 13.0012 12.2496 13.9489 12.2496H21.8807ZM11.8007 1.75049C14.5001 1.75049 16.0637 2.69024 17.2712 4.28799C18.3912 5.76849 19.0457 7.54211 19.1569 9.38574L19.1639 9.62811C19.1621 10.1094 18.7719 10.4996 18.2906 10.4996C17.8277 10.4996 17.4585 10.1365 17.4296 9.68061C17.4296 9.68061 17.3955 9.23874 17.3684 9.02086C17.2056 7.69086 16.6937 6.42211 15.8774 5.34236C14.9429 4.10599 13.9252 3.50224 11.8025 3.50224L9.25885 3.49874C7.25598 3.49874 6.09223 4.06486 5.12711 5.34149C4.22148 6.53849 3.69036 7.96824 3.59498 9.45574L3.50836 12.6661C3.46286 14.4861 3.62823 16.3691 4.0876 18.2486C4.76573 18.6249 5.35286 18.9609 5.84986 19.2566C6.59536 19.7002 6.87098 19.891 7.38898 20.199C7.48173 20.2541 8.16161 20.4685 8.16423 20.4729C8.54486 20.5779 8.83623 20.9296 8.83623 21.3435C8.83623 21.8396 8.43373 22.2421 7.93761 22.2421C7.84311 22.2421 7.31286 22.082 7.22711 22.0549L7.17927 22.0466L7.1536 22.04C7.14573 22.0365 7.13873 22.0339 7.13173 22.0304C6.98123 21.9761 6.83685 21.9175 6.70123 21.8414C6.32236 21.6296 5.28986 20.9576 4.67911 20.5971C4.75436 20.9681 4.87248 21.3067 5.03261 21.6147C5.19273 21.9227 5.41761 22.2824 5.70723 22.6945C6.06773 23.2291 6.78611 23.6237 7.32861 23.6176L8.52911 23.6194C9.01473 23.6194 9.40673 24.0114 9.40673 24.4944L9.40586 25.3746C9.40586 25.8576 9.01385 26.2496 8.53086 26.2496H6.99961C6.51661 26.2496 6.12461 25.8576 6.12461 25.3746C6.12461 25.295 6.13511 25.218 6.15523 25.1454C5.4561 24.8977 4.83573 24.4489 4.37986 23.8469C3.92398 23.2449 3.74636 22.9684 3.50748 22.5116C3.34823 22.2071 3.16798 21.6926 2.96673 20.9672L2.47761 19.0431C1.99023 17.1207 1.74611 15.1459 1.75042 13.1649L1.83098 9.71211C1.87998 7.75211 2.54411 5.85599 3.72973 4.28799C4.89436 2.74799 6.5271 1.75049 9.2571 1.75049H11.8007ZM13.0031 19.2524L12.5804 19.2522C12.3669 19.2767 12.2067 19.4509 12.1936 19.6582C12.1849 19.7965 12.2024 19.9715 12.247 20.1841L13.2699 20.3556C13.7467 20.4352 14.0687 20.8859 13.9891 21.3627C13.9147 21.8055 13.521 22.1152 13.0835 22.0934L12.4552 21.9945L12.52 22.5571C12.5637 22.9342 12.8437 23.2361 13.2077 23.3131C15.1949 23.5196 16.7716 23.6237 17.938 23.6255C19.1052 23.6272 20.6479 23.5284 22.5676 23.328C22.9456 23.293 23.2536 23.02 23.3385 22.6577L23.4199 21.9945L22.894 22.082C22.4171 22.1616 21.9665 21.8396 21.8869 21.3627C21.8134 20.92 22.0855 20.5 22.5064 20.3784L23.6281 20.185C23.6666 20.045 23.685 19.8875 23.685 19.7125C23.6859 19.4491 23.5082 19.2566 23.2746 19.2566L22.9991 19.2565C22.9761 19.2565 22.9516 19.2565 22.9257 19.2565L20.802 19.2555C20.7335 19.2555 20.6636 19.2555 20.5923 19.2555L18.3214 19.2545L18.175 19.2544L16.078 19.2536C15.9613 19.2535 15.8431 19.2535 15.7235 19.2534L13.4172 19.2526L13.0031 19.2524ZM19.6871 20.4746C19.9627 20.4746 20.22 20.605 20.3845 20.8211L20.8789 21.6497C21.1239 22.0662 20.9847 22.6026 20.5682 22.8476C20.1815 23.0751 19.6915 22.971 19.4272 22.6219L19.1857 22.2237H16.6876L16.5039 22.537C16.2764 22.9237 15.7295 23.1162 15.306 22.8476C14.8825 22.579 14.7722 22.1415 14.949 21.7407L15.4329 20.906C15.5729 20.6689 15.8152 20.5122 16.0847 20.4807L19.6871 20.4746ZM6.45536 14.8772C6.88236 14.7399 7.33736 14.9472 7.51936 15.3462L7.52723 15.3699L7.68298 15.8494L8.34186 17.8802C8.48973 18.3405 8.23773 18.834 7.77748 18.9819C7.35048 19.1192 6.89548 18.9119 6.71348 18.5129L5.89098 15.9797C5.85336 15.8634 5.84198 15.7461 5.85161 15.6332C5.88223 15.2937 6.11061 14.9884 6.45536 14.8772ZM21.8606 14.0005H13.9935C13.8684 14.0005 13.745 14.0889 13.6829 14.2385C13.6417 14.3382 13.3854 15.4259 12.9137 17.5005H22.9596L22.2167 14.3181C22.1774 14.1492 22.0741 14.0005 21.8606 14.0005ZM10.4996 5.24961C12.3415 5.24961 13.7284 5.62849 14.662 6.38536C15.5956 7.14224 15.7575 7.92186 15.6621 8.75924C15.621 9.12674 15.5055 9.87749 15.5046 9.88011C15.439 10.336 15.0277 10.6772 14.5631 10.6387C14.0801 10.5985 13.7214 10.175 13.7616 9.69286C13.7642 9.66049 13.8929 8.83361 13.9235 8.56236C13.9515 8.31824 13.941 8.07499 13.5595 7.74511C13.0415 7.29711 11.974 7.00049 10.4996 7.00049C8.92023 7.00049 7.88598 7.31286 7.32773 7.84311C7.15623 8.00586 7.05911 8.22986 7.05386 8.45124C7.05036 8.59824 7.16148 9.25624 7.38723 10.4244C7.45898 10.7315 7.68998 10.973 7.98311 11.0614C8.65161 11.1874 10.1916 11.3676 10.1969 11.3676C10.6842 11.4324 11.0272 11.8804 10.9616 12.3677C10.9581 12.3949 10.9537 12.4211 10.9476 12.4474C10.8514 12.8717 10.4585 13.1561 10.0227 13.129C10.0227 13.129 8.52123 12.954 7.78973 12.8096C6.71435 12.597 5.92423 11.848 5.68361 10.8234C5.50686 10.0096 5.38698 9.32974 5.32311 8.78199C5.22686 7.96124 5.52348 7.14311 6.12286 6.57349C7.0521 5.69061 8.51161 5.24961 10.4996 5.24961Z" fill="#1A1C1F"/>
</g>
<defs>
<clipPath id="clip0_187_984">
<rect width="28" height="28" fill="white"/>
</clipPath>
</defs>
</svg>

<svg xmlns="http://www.w3.org/2000/svg" width="28" height="28" fill="none"><g clip-path="url(#a)"><path fill="#1A1C1F" fill-rule="evenodd" d="M21.88 12.25c.93 0 1.73.63 2.003 1.527l.873 3.723h.927c.294 0 .521.2.56.477l.007.67c0 .293-.202.552-.482.597l-.378.006q.042.212.043.437 0 .15-.34 3.07c-.045.393-.176.76-.375 1.078v1.54a.875.875 0 0 1-.875.875h-.875a.875.875 0 0 1-.875-.875v-.249a287 287 0 0 1-8.312-.002v.25a.875.875 0 0 1-.875.876h-.875a.875.875 0 0 1-.875-.875v-1.538a2.6 2.6 0 0 1-.346-.885q-.06-.32-.355-3.014a2.2 2.2 0 0 1 .029-.688h-.292c-.324 0-.567-.281-.567-.603v-.584c0-.323.243-.563.567-.563h.925l.836-3.58c.215-.923 1.048-1.67 1.996-1.67zM11.8 1.75c2.7 0 4.264.94 5.471 2.538a9.4 9.4 0 0 1 1.886 5.098l.007.242a.874.874 0 0 1-.873.872.866.866 0 0 1-.861-.82s-.035-.441-.062-.66a7.64 7.64 0 0 0-1.49-3.678c-.935-1.236-1.953-1.84-4.075-1.84L9.259 3.5c-2.003 0-3.167.566-4.132 1.842a7.63 7.63 0 0 0-1.532 4.115l-.087 3.21c-.045 1.82.12 3.703.58 5.583q1.017.564 1.762 1.008c.745.443 1.021.634 1.539.942.093.055.773.27.775.274.38.105.672.457.672.87a.9.9 0 0 1-.898.9c-.095 0-.625-.161-.71-.188l-.049-.008-.025-.007-.022-.01a3 3 0 0 1-.43-.189c-.38-.211-1.412-.883-2.023-1.244q.112.556.354 1.018.24.461.674 1.08c.36.534 1.08.929 1.622.923l1.2.001c.486 0 .878.392.878.875l-.001.88a.875.875 0 0 1-.875.876H7a.875.875 0 0 1-.845-1.105 3.84 3.84 0 0 1-1.775-1.298c-.456-.602-.634-.879-.873-1.335q-.239-.457-.54-1.545l-.49-1.924a23.7 23.7 0 0 1-.727-5.878l.081-3.453A9.4 9.4 0 0 1 3.73 4.288C4.894 2.748 6.527 1.75 9.257 1.75zm1.203 17.502h-.423a.44.44 0 0 0-.386.406q-.015.207.053.526l1.023.172a.875.875 0 0 1-.186 1.737l-.629-.099.065.563a.88.88 0 0 0 .688.756q2.98.31 4.73.313 1.75.002 4.63-.298a.87.87 0 0 0 .77-.67l.082-.664-.526.088a.875.875 0 0 1-.388-1.704l1.122-.193q.058-.21.057-.473c0-.263-.177-.455-.41-.455h-.349l-2.124-.002h-2.627l-2.097-.001h-.354l-2.307-.001zm6.684 1.223c.276 0 .533.13.697.346l.495.829a.875.875 0 0 1-1.452.972l-.241-.398h-2.498l-.184.313c-.228.387-.775.58-1.198.31-.423-.268-.534-.706-.357-1.106l.484-.835a.88.88 0 0 1 .652-.425zM6.455 14.877a.875.875 0 0 1 1.064.47l.008.023.156.48.659 2.03a.875.875 0 0 1-1.629.633l-.822-2.533a.877.877 0 0 1 .564-1.102m15.406-.876h-7.868c-.125 0-.248.088-.31.238q-.062.15-.77 3.261H22.96l-.743-3.182c-.04-.169-.143-.317-.356-.317M10.5 5.25q2.762 0 4.162 1.135c.934.757 1.095 1.537 1 2.374a37 37 0 0 1-.157 1.121.886.886 0 0 1-.942.759.876.876 0 0 1-.801-.946c.002-.033.13-.86.162-1.13.027-.245.017-.488-.364-.818C13.04 7.297 11.974 7 10.5 7c-1.58 0-2.614.313-3.172.843a.88.88 0 0 0-.274.608q-.006.22.333 1.973a.87.87 0 0 0 .596.637c.669.126 2.209.307 2.214.307a.89.89 0 0 1 .75 1.08.885.885 0 0 1-.924.681s-1.502-.175-2.233-.32c-1.076-.212-1.866-.961-2.106-1.986a22 22 0 0 1-.36-2.041c-.097-.82.2-1.639.799-2.209Q7.518 5.25 10.5 5.25" clip-rule="evenodd"/></g><defs><clipPath id="a"><path fill="#fff" d="M0 0h28v28H0z"/></clipPath></defs></svg>
